!!!COM: Palestrina, Giovanni Perluigi da
!!!OPR: Missa Dilexi quoniam
!!!OTL: Agnus II
**kern	**kern	**kern	**kern	**kern	**kern
*Ibass	*Itenor	*Itenor	*Icalto	*Icalto	*Icant
!Bassus	!Tenor 2	!Tenor 1	!Altus 2	!Altus 1	!Cantus
*clefF4	*clefGv2	*clefGv2	*clefG2	*clefG2	*clefG2
*k[]	*k[]	*k[]	*k[]	*k[]	*k[]
*C:ion	*C:ion	*C:ion	*C:ion	*C:ion	*C:ion
*M4/2	*M4/2	*M4/2	*M4/2	*M4/2	*M4/2
=1	=1	=1	=1	=1	=1
1c	1e	0r	1g	0r	0r
2A	2f#	.	2a	.	.
2G	2g	.	2b	.	.
=2	=2	=2	=2	=2	=2
1c	1e	2r	1g	2r	1cc
.	.	2c	.	2e	.
1r	1r	2d	1r	2f	2a
.	.	2e	.	2g	2g
=3	=3	=3	=3	=3	=3
2r	2r	1c	2r	2.e	0cc
2C	2c	.	2e	.	.
.	.	.	.	4f	.
2C	2c	1r	2e	1g	.
2C	2c	.	2e	.	.
=4	=4	=4	=4	=4	=4
2F	2A	0r	2d	0r	0r
2E	2G	.	2c	.	.
2F	2A	.	2d	.	.
2G	2B	.	2d	.	.
=5	=5	=5	=5	=5	=5
0C	1c	2r	0e	2r	2r
.	.	2c	.	2g	2ee
.	1r	2c	.	2g	2ee
.	.	2c	.	2g	2ee
=6	=6	=6	=6	=6	=6
0r	0r	2f	0r	2a	2dd
.	.	2e	.	2g	2cc
.	.	2f	.	2a	2dd
.	.	2g	.	2b	2dd
=7	=7	=7	=7	=7	=7
2r	2r	1c	2r	1cc	1ee
2C	2c	.	2e	.	.
2D	2A	1r	2f	1r	1r
2E	2G	.	2g	.	.
=8	=8	=8	=8	=8	=8
1C	1c	2r	1e	2r	2r
.	.	2c	.	2cc	2ee
1r	1r	2d	1r	2a	2ff
.	.	2e	.	2g	2gg
=9	=9	=9	=9	=9	=9
2r	2r	1c	2r	1cc	1ee
2c	2e	.	2g	.	.
2A	2f#	1r	2a	1r	1r
2G	2g	.	2b	.	.
=10	=10	=10	=10	=10	=10
2c	1e	0r	1g	2r	2r
2c	.	.	.	2e	2g
2c	1r	.	1r	2e	2g
2c	.	.	.	2e	2g
=11	=11	=11	=11	=11	=11
2A	0r	0r	1r	2f	2cc
2G	.	.	.	2g	2b
2A	.	.	2r	2f	2cc
2B	.	.	2g	2d	2dd
=12	=12	=12	=12	=12	=12
1c	0r	2r	2g	2.e	2g
.	.	2c	2g	.	4cc
.	.	.	.	4f	4dd
1r	.	2c	1cc	1g	4ee
.	.	.	.	.	4ff
.	.	2c	.	.	2gg
=13	=13	=13	=13	=13	=13
0r	1r	2f	2a	0r	2cc
.	.	2e	1cc	.	2ee
.	2r	2f	.	.	1dd
.	2G	[2g	4b	.	.
.	.	.	4a	.	.
=14	=14	=14	=14	=14	=14
0r	2G	4g]	1b	0r	1dd
.	.	4f	.	.	.
.	2G	2d	.	.	.
.	2c	4e	1g	.	2r
.	.	4f	.	.	.
.	2B	[2g	.	.	2dd
=15	=15	=15	=15	=15	=15
0r	2c	2g]	1a	2r	2cc
.	2d	2f#	.	2d	2a
.	2.G	1g	2g	2d	2.b
.	.	.	2g	2d	.
.	4A	.	.	.	4cc
=16	=16	=16	=16	=16	=16
2r	2B	1G	2g	4g	2dd
.	.	.	.	4f	.
2C	4c	.	2g	4e	2.ee
.	4d	.	.	4d	.
2C	4e	2G	1cc	4c	.
.	4f	.	.	4d	4dd
2C	2g	2G	.	2e	4cc
.	.	.	.	.	4b
=17	=17	=17	=17	=17	=17
2F	2c	2A	1cc	2f	2a
2E	2e	2G	.	2g	1cc
2F	1d	2A	2a	2f	.
2G	.	2B	2g	2d	2b
=18	=18	=18	=18	=18	=18
1C	1c	1G	0g	1e	0cc
[1c	2r	1r	.	2r	.
.	[2e	.	.	[2g	.
=19	=19	=19	=19	=19	=19
2c]	2e]	1.c	0r	2g]	0r
2c	2e	.	.	2g	.
1A	1f#	.	.	1a	.
.	.	2c	.	.	.
=20	=20	=20	=20	=20	=20
1G	1g	1d	1r	1b	0r
2.c	2r	[1e	2r	1g	.
.	[2c	.	[2cc	.	.
4B	.	.	.	.	.
=21	=21	=21	=21	=21	=21
2.A	2c]	1e]	2cc]	1a	0r
.	2c	.	2cc	.	.
4G	.	.	.	.	.
1F	1d	1A	1a	1r	.
=22	=22	=22	=22	=22	=22
1E	2.e	2B	1g	0r	1r
.	.	1e	.	.	.
.	4d	.	.	.	.
2.A	4c	.	2.cc	.	2r
.	4B	.	.	.	.
.	[2A	2e	.	.	[2cc
4G	.	.	4b	.	.
=23	=23	=23	=23	=23	=23
2.F	2A]	2.f	2.a	0r	2cc]
.	1c	.	.	.	2cc
4E	.	4g	4g	.	.
1D	.	2a	1f	.	1dd
.	2B	2d	.	.	.
=24	=24	=24	=24	=24	=24
0C	1c	2.g	2e	2r	0ee
.	.	.	1c	1cc	.
.	.	4f	.	.	.
.	1r	4g	.	.	.
.	.	4a	.	.	.
.	.	[2g	2c	2cc	.
=25	=25	=25	=25	=25	=25
0r	1r	2g]	1d	1a	1dd
.	.	2f#	.	.	.
.	2r	1g	2.e	1g	2b
.	[2c	.	.	.	[2ee
.	.	.	4f	.	.
=26	=26	=26	=26	=26	=26
0r	2c]	0r	1g	2.cc	4ee]
.	.	.	.	.	4ff
.	2c	.	.	.	4gg
.	.	.	.	4b	4ee
.	2d	.	2r	2.a	2ff
.	2A	.	2cc	.	[2ee
.	.	.	.	4g	.
=27	=27	=27	=27	=27	=27
1r	1d	1r	2a	1f	2ee]
.	.	.	2b	.	2dd
2r	1c	2r	[1cc	1e	1ee
2c	.	2e	.	.	.
=28	=28	=28	=28	=28	=28
2A	1r	2f	2cc]	1r	1r
2B	.	2d	4b	.	.
.	.	.	4a	.	.
1c	2r	1e	1g	2r	2r
.	2c	.	.	2cc	2ee
=29	=29	=29	=29	=29	=29
1r	2d	1r	1r	2a	2ff
.	2g	.	.	2b	2dd
2r	1c	2r	2r	2cc	[1ee
[2C	.	[2c	[2e	[2g	.
=30	=30	=30	=30	=30	=30
2C]	1r	2c]	2e]	2g]	1ee]
2C	.	2c	2g	2e	.
2F	2r	1c	2a	2f	1r
2E	[2c	.	2g	2g	.
=31	=31	=31	=31	=31	=31
2.F	2c]	2A	1.f	1.a	0r
.	2c	1c	.	.	.
4E	.	.	.	.	.
1D	[1f	.	.	.	.
.	.	2B	2d	4g	.
.	.	.	.	4f	.
=32	=32	=32	=32	=32	=32
1C	2f]	1c	1r	2a	2r
.	2e	.	.	2g	1cc
1r	2.f	1r	2r	2.a	.
.	.	.	2f	.	2cc
.	4e	.	.	4g	.
=33	=33	=33	=33	=33	=33
0r	2d	0r	2f	4a	2ff
.	.	.	.	4b	.
.	2c	.	2g	1cc	2ee
.	1f	.	2a	.	2.ff
.	.	.	[2cc	2a	.
.	.	.	.	.	4ee
=34	=34	=34	=34	=34	=34
2r	2.g	2r	2cc]	0r	1dd
1G	.	1g	4b	.	.
.	8f	.	4a	.	.
.	8e	.	.	.	.
.	1d	.	4b	.	2dd
.	.	.	4a	.	.
2G	.	2g	4g	.	2b
.	.	.	4f	.	.
=35	=35	=35	=35	=35	=35
2c	0r	2g	2e	2r	2cc
2B	.	2g	2d	1g	2dd
2.c	.	1e	4e	.	2cc
.	.	.	4f	.	.
.	.	.	[2g	2g	[2ee
4B	.	.	.	.	.
=36	=36	=36	=36	=36	=36
1A	1r	1c	4g]	1.cc	2ee]
.	.	.	4f	.	.
.	.	.	4f	.	4dd
.	.	.	4e	.	4cc
1G	2r	1r	1g	.	1dd
.	[2G	.	.	2b	.
=37	=37	=37	=37	=37	=37
1C	2G]	0r	1e	2.cc	2ee
.	2G	.	.	.	1gg
.	.	.	.	4b	.
1r	2c	.	2r	1a	.
.	2d	.	[2d	.	2ff#
=38	=38	=38	=38	=38	=38
0r	1B	1.G	2d]	[0g	2.gg
.	.	.	2d	.	.
.	.	.	.	.	4ff
.	2G	.	2.g	.	2ee
.	2B	2G	.	.	2dd
.	.	.	4f	.	.
=39	=39	=39	=39	=39	=39
0r	2c	2c	2e	0g]	2cc
.	2d	2B	2d	.	2.gg
.	2.e	2.c	2.c	.	.
.	.	.	.	.	4ff
.	.	.	.	.	[2ee
.	4d	4B	4d	.	.
=40	=40	=40	=40	=40	=40
0r	1c	1A	2e	1r	4ee]
.	.	.	.	.	4dd
.	.	.	2f#	.	1cc
.	1d	1G	1g	2r	.
.	.	.	.	[2g	2b
=41	=41	=41	=41	=41	=41
1.C	[0c	1c	1.e	2g]	[0cc
.	.	.	.	2g	.
.	.	2r	.	2.cc	.
2C	.	2G	2e	.	.
.	.	.	.	4b	.
=42	=42	=42	=42	=42	=42
1F	1c_	2A	1f	1a	1cc_
.	.	1c	.	.	.
1E	1c_	.	1g	1g	1cc_
.	.	2B	.	.	.
=43	=43	=43	=43	=43	=43
0F	0c]	1A	0a	0f	0cc]
.	.	1F	.	.	.
=44	=44	=44	=44	=44	=44
[0C	[0c	[0G	[0g	[0e	[0cc
=45	=45	=45	=45	=45	=45
0C]	0c]	0G]	0g]	0e]	0cc]
==	==	==	==	==	==
*-	*-	*-	*-	*-	*-
!!!CDT: 1525/^1526/-1594/2/2
!!!OCY: Italia
!!!AGN: Mass (Parody)
!!!AST: renaissance, vocal
!!!ASW: Motet (Maffoni)
!!!PWK: Masses, Book 6
!!!RNB: Cadence finals: G,A
!!!YOR: Le Opere Complete, v. 21, p. 105
!!!YOO: Rome, Italy: Fratelli Scalera
!!!END: 1992//
!!!EED: John Miller
!!!YEC: Copyright 2000, John Miller
!!!YEN: United States of America
!!!YEM: Rights to all derivative electronic formats reserved.
!!!YEM: Refer to licensing agreement for further details.
!!!YEM: This file must be accompanied by the licensing agreement.
!!!YEM: A copy of the licensing agreement may be found at http://www.music-cog.ohio-state.edu/HumdrumDatabases/Palestrina/license.txt
!!!EMD: converted to Humdrum by Bret Aarden
